docs/static/img/logos/influxdb.svg

<?xml version="1.0" encoding="UTF-8"?>
<svg width="64px" height="64px" viewBox="0 0 64 64" version="1.1" xmlns="http://www.w3.org/2000/svg" xmlns:xlink="http://www.w3.org/1999/xlink">
    <!-- Generator: Sketch 63.1 (92452) - https://sketch.com -->
    <title>Icon</title>
    <desc>Created with Sketch.</desc>
    <g id="Icon" stroke="none" stroke-width="1" fill="none" fill-rule="evenodd">
        <g id="influxdata-logo--symbol--castle">
            <rect id="Background" x="0" y="0" width="64" height="64"></rect>
            <path d="M61.6604444,38.2506667 L55.9004444,13.1697778 C55.5733333,11.7973333 54.3288889,10.4248889 52.9564444,10.0266667 L26.6311111,1.90577778 C26.304,1.77777778 25.9128889,1.77777778 25.5146667,1.77777778 C24.3982222,1.77777778 23.2248889,2.23288889 22.4355556,2.89422222 L3.57688889,20.4444444 C2.53155556,21.3617778 2.00533333,23.1964444 2.33244444,24.5048889 L8.49066667,51.3564444 C8.81777778,52.7288889 10.0622222,54.1084444 11.4346667,54.4995556 L36.0533333,62.0942222 C36.3804444,62.2222222 36.7715556,62.2222222 37.1697778,62.2222222 C38.2862222,62.2222222 39.4595556,61.7671111 40.2488889,61.1057778 L60.416,42.3822222 C61.4684444,41.4008889 61.9875556,39.6302222 61.6604444,38.2506667 Z M29.3831111,7.86488889 L47.4524444,13.4328889 C48.1706667,13.632 48.1706667,13.9591111 47.4524444,14.1511111 L37.9591111,16.3128889 C37.2408889,16.512 36.2595556,16.1848889 35.7333333,15.6586667 L29.12,8.51911111 C28.5297778,7.936 28.6577778,7.67288889 29.3831111,7.86488889 Z M40.64,40.2844444 C40.8391111,41.0026667 40.3768889,41.4008889 39.6586667,41.2017778 L20.1457778,35.1786667 C19.4275556,34.9795556 19.2924444,34.3893333 19.8186667,33.8702222 L34.752,19.9822222 C35.2782222,19.456 35.8684444,19.6551111 36.0604444,20.3733333 L40.64,40.2844444 Z M8.49066667,22.5991111 L24.3413333,7.86488889 C24.8675556,7.33866667 25.7137778,7.40977778 26.24,7.92888889 L34.1617778,16.512 C34.688,17.0382222 34.6168889,17.8844444 34.0977778,18.4106667 L18.2471111,33.1448889 C17.7208889,33.6711111 16.8746667,33.6 16.3484444,33.0808889 L8.42666667,24.5048889 C7.90044444,23.9146667 7.97155556,23.0613333 8.49066667,22.5991111 Z M12.3591111,45.9804444 L8.17066667,27.5768889 C7.97155556,26.8586667 8.29866667,26.7235556 8.76088889,27.2497778 L15.3742222,34.3893333 C15.9004444,34.9155556 16.0924444,35.9608889 15.9004444,36.6791111 L13.0133333,45.9804444 C12.8142222,46.6986667 12.4871111,46.6986667 12.3591111,45.9804444 Z M35.5342222,56.7182222 L14.8408889,50.368 C14.1226667,50.1688889 13.7244444,49.3866667 13.9235556,48.6684444 L17.3937778,37.5324444 C17.5928889,36.8142222 18.3751111,36.416 19.0933333,36.6151111 L39.7866667,42.9653333 C40.5048889,43.1644444 40.9031111,43.9466667 40.704,44.6648889 L37.2337778,55.8008889 C36.9777778,56.5262222 36.2595556,56.9173333 35.5342222,56.7182222 Z M53.8666667,41.6568889 L40.0568889,54.4924444 C39.5306667,55.0186667 39.2746667,54.8195556 39.4666667,54.1013333 L42.3466667,44.8 C42.5457778,44.0817778 43.328,43.3564444 44.0462222,43.2284444 L53.5395556,41.0666667 C54.2648889,40.8746667 54.3928889,41.2017778 53.8666667,41.6568889 Z M55.3742222,38.912 L43.9822222,41.5288889 C43.264,41.728 42.5386667,41.2657778 42.3466667,40.5475556 L37.504,19.4631111 C37.3048889,18.7448889 37.7671111,18.0195556 38.4853333,17.8275556 L49.8773333,15.2106667 C50.5955556,15.0115556 51.3208889,15.4737778 51.5128889,16.192 L56.3555556,37.2764444 C56.5546667,38.0586667 56.0995556,38.7768889 55.3742222,38.912 Z" id="Cuboctahedron" fill="#000000" fill-rule="nonzero"></path>
        </g>
    </g>
</svg>

<svg width="64" height="64" viewBox="0 0 64 64" xmlns="http://www.w3.org/2000/svg">
  <g fill="none" fill-rule="evenodd">
    <path d="M0 0h64v64H0z"/>
    <path d="M61.66 38.25L55.9 13.17c-.327-1.373-1.571-2.745-2.944-3.143L26.631 1.906c-.327-.128-.718-.128-1.116-.128-1.117 0-2.29.455-3.08 1.116L3.578 20.444c-1.045.918-1.572 2.752-1.245 4.06l6.159 26.852c.327 1.373 1.571 2.752 2.944 3.144l24.618 7.594c.327.128.719.128 1.117.128 1.116 0 2.29-.455 3.079-1.116l20.167-18.724c1.052-.981 1.572-2.752 1.244-4.131zM29.383 7.866l18.07 5.568c.718.199.718.526 0 .718l-9.494 2.162c-.718.199-1.7-.128-2.226-.654l-6.613-7.14c-.59-.583-.462-.846.263-.654zm11.257 32.42c.2.718-.263 1.116-.981.917l-19.513-6.023c-.718-.2-.854-.79-.327-1.309l14.933-13.888c.526-.526 1.116-.327 1.308.391l4.58 19.911zM8.49 22.598L24.342 7.865c.527-.526 1.373-.455 1.899.064l7.922 8.583c.526.526.455 1.372-.064 1.899l-15.85 14.734c-.527.526-1.373.455-1.9-.064l-7.921-8.576c-.527-.59-.455-1.444.064-1.906zm3.87 23.381L8.17 27.577c-.198-.718.129-.853.59-.327l6.614 7.14c.526.526.718 1.57.526 2.29l-2.887 9.3c-.199.719-.526.719-.654 0zm23.174 10.738l-20.693-6.35c-.718-.2-1.117-.981-.917-1.7l3.47-11.136c.199-.718.981-1.116 1.7-.917l20.693 6.35c.718.2 1.116.982.917 1.7L37.234 55.8c-.256.725-.974 1.116-1.7.917zm18.333-15.061l-13.81 12.835c-.526.527-.782.328-.59-.39l2.88-9.302c.199-.718.981-1.444 1.7-1.572l9.493-2.161c.725-.192.853.135.327.59zm1.507-2.745l-11.392 2.617c-.718.199-1.443-.263-1.635-.981l-4.843-21.085c-.2-.718.263-1.443.981-1.635l11.392-2.617c.719-.2 1.444.263 1.636.981l4.843 21.084c.199.783-.256 1.5-.982 1.636z" fill="#000000" fill-rule="nonzero"/>
  </g>
</svg>
